public/icons/qr.svg

<svg width="56" height="56" viewBox="0 0 56 56" fill="none" xmlns="http://www.w3.org/2000/svg">
<path d="M31.5666 11.4005L13.6567 4.65246C13.3307 4.52987 12.9694 4.5417 12.6522 4.68534C12.335 4.82899 12.0878 5.09271 11.9649 5.41854L8.52426 14.551" stroke="#333333" stroke-linecap="round" stroke-linejoin="round"/>
<path d="M24.36 16.3955H4.25263C3.86736 16.3955 3.49788 16.5486 3.22546 16.821C2.95303 17.0934 2.79999 17.4629 2.79999 17.8481V35.2798C2.80058 35.6647 2.95389 36.0336 3.22625 36.3056C3.49861 36.5775 3.86775 36.7302 4.25263 36.7302H24.4009" stroke="#333333" stroke-linecap="round" stroke-linejoin="round"/>
<path d="M10.4065 22.4395H7.32983V25.5161H10.4065V22.4395Z" stroke="#333333" stroke-linecap="round" stroke-linejoin="round"/>
<path d="M9.48915 23.3569H8.24707V24.599H9.48915V23.3569Z" stroke="#333333" stroke-linecap="round" stroke-linejoin="round"/>
<path d="M10.4065 31.6689H7.32983V34.7456H10.4065V31.6689Z" stroke="#333333" stroke-linecap="round" stroke-linejoin="round"/>
<path d="M9.48915 32.5859H8.24707V33.828H9.48915V32.5859Z" stroke="#333333" stroke-linecap="round" stroke-linejoin="round"/>
<path d="M19.6358 22.4395H16.5592V25.5161H19.6358V22.4395Z" stroke="#333333" stroke-linecap="round" stroke-linejoin="round"/>
<path d="M18.718 23.3569H17.4759V24.599H18.718V23.3569Z" stroke="#333333" stroke-linecap="round" stroke-linejoin="round"/>
<path d="M11.9442 22.4395V25.5161" stroke="#333333" stroke-linecap="round" stroke-linejoin="round"/>
<path d="M13.4825 22.4395H15.0208V25.5161H13.4825V23.9778" stroke="#333333" stroke-linecap="round" stroke-linejoin="round"/>
<path d="M7.32983 27.0542H10.4059" stroke="#333333" stroke-linecap="round" stroke-linejoin="round"/>
<path d="M7.32983 28.5923V30.1306H8.86815V28.5923H10.4059V30.1306" stroke="#333333" stroke-linecap="round" stroke-linejoin="round"/>
<path d="M11.9442 27.0542V30.1308H15.7898" stroke="#333333" stroke-linecap="round" stroke-linejoin="round"/>
<path d="M13.4825 27.0542V28.5925" stroke="#333333" stroke-linecap="round" stroke-linejoin="round"/>
<path d="M11.9442 31.6689H13.4826V33.2073H11.9442V34.745H13.4826" stroke="#333333" stroke-linecap="round" stroke-linejoin="round"/>
<path d="M15.0209 28.5925V27.0542H17.3281V30.1308" stroke="#333333" stroke-linecap="round" stroke-linejoin="round"/>
<path d="M18.8665 27.0542H19.6353V30.1308H18.8665" stroke="#333333" stroke-linecap="round" stroke-linejoin="round"/>
<path d="M19.6353 31.6689V34.745" stroke="#333333" stroke-linecap="round" stroke-linejoin="round"/>
<path d="M15.0209 31.6689H18.097" stroke="#333333" stroke-linecap="round" stroke-linejoin="round"/>
<path d="M15.0209 33.207V34.7448" stroke="#333333" stroke-linecap="round" stroke-linejoin="round"/>
<path d="M16.5592 33.207H18.097V34.7448H16.5592" stroke="#333333" stroke-linecap="round" stroke-linejoin="round"/>
<path d="M45.8953 36.8392V14.7942C45.8943 14.5485 45.8449 14.3054 45.7498 14.0788C45.6548 13.8522 45.5161 13.6465 45.3416 13.4735C45.167 13.3006 44.9601 13.1637 44.7327 13.0707C44.5052 12.9777 44.2617 12.9305 44.016 12.9317H28.0459C27.8002 12.9306 27.5567 12.9779 27.3293 13.0709C27.102 13.1639 26.8951 13.3008 26.7206 13.4737C26.5462 13.6467 26.4075 13.8523 26.3125 14.0789C26.2175 14.3055 26.1681 14.5485 26.1671 14.7942V46.4639C26.1679 46.7097 26.2171 46.953 26.312 47.1797C26.4069 47.4065 26.5456 47.6123 26.7201 47.7855C26.8945 47.9586 27.1015 48.0957 27.329 48.1888C27.5564 48.2819 27.8001 48.3292 28.0459 48.3281H39.368" stroke="#333333" stroke-linecap="round" stroke-linejoin="round"/>
<path d="M32.9784 15.8754C33.3214 15.8754 33.5994 15.5999 33.5994 15.26C33.5994 14.9201 33.3214 14.6445 32.9784 14.6445C32.6354 14.6445 32.3574 14.9201 32.3574 15.26C32.3574 15.5999 32.6354 15.8754 32.9784 15.8754Z" stroke="#333333" stroke-linecap="round" stroke-linejoin="round"/>
<path d="M34.6219 15.2603H38.8494" stroke="#333333" stroke-linecap="round" stroke-linejoin="round"/>
<path d="M36.0314 46.8391C36.8888 46.8391 37.5838 46.1499 37.5838 45.2997C37.5838 44.4495 36.8888 43.7603 36.0314 43.7603C35.1741 43.7603 34.4791 44.4495 34.4791 45.2997C34.4791 46.1499 35.1741 46.8391 36.0314 46.8391Z" stroke="#333333" stroke-linecap="round" stroke-linejoin="round"/>
<path d="M39.3949 41.832H28.5796C28.4149 41.8319 28.2571 41.7664 28.1406 41.65C28.0242 41.5335 27.9587 41.3757 27.9586 41.211V18.3915C27.9586 18.2268 28.024 18.0689 28.1405 17.9524C28.2569 17.8359 28.4149 17.7705 28.5796 17.7705H43.4829C43.5645 17.7704 43.6452 17.7864 43.7206 17.8176C43.796 17.8488 43.8645 17.8946 43.9222 17.9522C43.9799 18.0099 44.0256 18.0784 44.0568 18.1538C44.088 18.2292 44.104 18.31 44.1039 18.3915V37.576" stroke="#333333" stroke-linecap="round" stroke-linejoin="round"/>
<path d="M29.5114 25.2378V23.2817H31.4675" stroke="#333333" stroke-linecap="round" stroke-linejoin="round"/>
<path d="M42.5516 25.2378V23.2817H40.5955" stroke="#333333" stroke-linecap="round" stroke-linejoin="round"/>
<path d="M29.5114 34.3657V36.3218H31.4675" stroke="#333333" stroke-linecap="round" stroke-linejoin="round"/>
<path d="M42.5516 34.3657V36.3218H40.5955" stroke="#333333" stroke-linecap="round" stroke-linejoin="round"/>
<path d="M33.4459 24.6309H30.8604V27.2164H33.4459V24.6309Z" stroke="#333333" stroke-linecap="round" stroke-linejoin="round"/>
<path d="M32.6188 25.458H31.6875V26.3893H32.6188V25.458Z" fill="#333333"/>
<path d="M33.4459 32.3872H30.8604V34.9727H33.4459V32.3872Z" stroke="#333333" stroke-linecap="round" stroke-linejoin="round"/>
<path d="M32.6188 33.2148H31.6875V34.1461H32.6188V33.2148Z" fill="#333333"/>
<path d="M41.2025 24.6309H38.617V27.2164H41.2025V24.6309Z" stroke="#333333" stroke-linecap="round" stroke-linejoin="round"/>
<path d="M40.3754 25.458H39.4441V26.3893H40.3754V25.458Z" fill="#333333"/>
<path d="M34.7384 24.6309V27.2164" stroke="#333333" stroke-linecap="round" stroke-linejoin="round"/>
<path d="M36.0314 24.6309H37.3239V27.2164H36.0314V25.9239" stroke="#333333" stroke-linecap="round" stroke-linejoin="round"/>
<path d="M30.8604 28.5093H33.4459" stroke="#333333" stroke-linecap="round" stroke-linejoin="round"/>
<path d="M30.8604 29.8018V31.0948H32.1529V29.8018H33.4459V31.0948" stroke="#333333" stroke-linecap="round" stroke-linejoin="round"/>
<path d="M34.7384 28.5093V31.0948H37.9702" stroke="#333333" stroke-linecap="round" stroke-linejoin="round"/>
<path d="M36.0314 28.5093V29.8018" stroke="#333333" stroke-linecap="round" stroke-linejoin="round"/>
<path d="M34.7384 32.3872H36.0314V33.6802H34.7384V34.9727H36.0314" stroke="#333333" stroke-linecap="round" stroke-linejoin="round"/>
<path d="M37.3239 29.8018V28.5093H39.2632V31.0948" stroke="#333333" stroke-linecap="round" stroke-linejoin="round"/>
<path d="M40.5557 28.5093H41.2025V31.0948H40.5557" stroke="#333333" stroke-linecap="round" stroke-linejoin="round"/>
<path d="M41.2025 32.3872V34.9727" stroke="#333333" stroke-linecap="round" stroke-linejoin="round"/>
<path d="M37.3239 32.3872H39.9095" stroke="#333333" stroke-linecap="round" stroke-linejoin="round"/>
<path d="M37.3239 33.6807V34.9731" stroke="#333333" stroke-linecap="round" stroke-linejoin="round"/>
<path d="M38.617 33.6807H39.9095V34.9731H38.617" stroke="#333333" stroke-linecap="round" stroke-linejoin="round"/>
<path d="M46.8351 51.4321C50.3504 51.4321 53.2 48.5824 53.2 45.0671C53.2 41.5518 50.3504 38.7021 46.8351 38.7021C43.3198 38.7021 40.4701 41.5518 40.4701 45.0671C40.4701 48.5824 43.3198 51.4321 46.8351 51.4321Z" stroke="#333333" stroke-linecap="round" stroke-linejoin="round"/>
<path d="M45.4401 48.4702C45.3083 48.4702 45.1777 48.4442 45.056 48.3937C44.9342 48.3431 44.8236 48.269 44.7306 48.1756L42.7224 46.1675C42.5413 45.9778 42.4417 45.7247 42.4447 45.4625C42.4478 45.2003 42.5533 44.9496 42.7387 44.7642C42.9242 44.5787 43.1748 44.4732 43.4371 44.4702C43.6993 44.4671 43.9523 44.5668 44.142 44.7479L45.4401 46.046L49.5281 41.958C49.7178 41.7769 49.9708 41.6772 50.2331 41.6802C50.4953 41.6833 50.7459 41.7888 50.9314 41.9743C51.1168 42.1597 51.2224 42.4103 51.2254 42.6726C51.2285 42.9348 51.1288 43.1879 50.9477 43.3776L46.1502 48.1751C46.0571 48.2686 45.9464 48.3428 45.8246 48.3935C45.7027 48.4441 45.5721 48.4702 45.4401 48.4702V48.4702Z" stroke="#333333" stroke-linecap="round" stroke-linejoin="round"/>
<path d="M11.0387 7.87646L24.6478 13.0038" stroke="#333333" stroke-linecap="round" stroke-linejoin="round"/>
<path d="M2.79999 20.7529H24.2844" stroke="#333333" stroke-linecap="round" stroke-linejoin="round"/>
</svg>

<?xml version="1.0" encoding="utf-8"?>
<!-- Generator: Adobe Illustrator 25.4.1, SVG Export Plug-In . SVG Version: 6.00 Build 0)  -->
<svg version="1.1" id="Layer_1" xmlns="http://www.w3.org/2000/svg" xmlns:xlink="http://www.w3.org/1999/xlink" x="0px" y="0px"
	 viewBox="0 0 56 56" style="enable-background:new 0 0 56 56;" xml:space="preserve">
<style type="text/css">
	.st0{fill:none;stroke:#333333;stroke-linecap:round;stroke-linejoin:round;}
	.st1{fill:#333333;stroke:#333333;stroke-linecap:round;stroke-linejoin:round;}
	.st2{fill:none;stroke:#FFFFFF;stroke-width:0.5;stroke-linecap:round;stroke-linejoin:round;}
	.st3{fill:#FFFFFF;stroke:#333333;stroke-linecap:round;stroke-linejoin:round;}
	.st4{fill:#333333;}
	.st5{fill:#FFFFFF;stroke:#FFFFFF;stroke-width:0.5;stroke-linecap:round;stroke-linejoin:round;}
</style>
<path class="st0" d="M31.6,11.4L13.7,4.7c-0.3-0.1-0.7-0.1-1,0c-0.3,0.1-0.6,0.4-0.7,0.7l-3.4,9.1"/>
<path class="st0" d="M24.4,16.4H4.3c-0.4,0-0.8,0.2-1,0.4c-0.3,0.3-0.4,0.6-0.4,1v17.4c0,0.4,0.2,0.8,0.4,1c0.3,0.3,0.6,0.4,1,0.4
	h20.1"/>
<path class="st0" d="M10.4,22.4H7.3v3.1h3.1V22.4z"/>
<path class="st0" d="M9.5,23.4H8.2v1.2h1.2V23.4z"/>
<path class="st0" d="M10.4,31.7H7.3v3.1h3.1V31.7z"/>
<path class="st0" d="M9.5,32.6H8.2v1.2h1.2V32.6z"/>
<path class="st0" d="M19.6,22.4h-3.1v3.1h3.1V22.4z"/>
<path class="st0" d="M18.7,23.4h-1.2v1.2h1.2V23.4z"/>
<path class="st0" d="M11.9,22.4v3.1"/>
<path class="st0" d="M13.5,22.4H15v3.1h-1.5V24"/>
<path class="st0" d="M7.3,27.1h3.1"/>
<path class="st0" d="M7.3,28.6v1.5h1.5v-1.5h1.5v1.5"/>
<path class="st0" d="M11.9,27.1v3.1h3.8"/>
<path class="st0" d="M13.5,27.1v1.5"/>
<path class="st0" d="M11.9,31.7h1.5v1.5h-1.5v1.5h1.5"/>
<path class="st0" d="M15,28.6v-1.5h2.3v3.1"/>
<path class="st0" d="M18.9,27.1h0.8v3.1h-0.8"/>
<path class="st0" d="M19.6,31.7v3.1"/>
<path class="st0" d="M15,31.7h3.1"/>
<path class="st0" d="M15,33.2v1.5"/>
<path class="st0" d="M16.6,33.2h1.5v1.5h-1.5"/>
<path class="st1" d="M45.9,36.8c0-7.3,0-14.7,0-22c0-0.2-0.1-0.5-0.1-0.7c-0.1-0.2-0.2-0.4-0.4-0.6c-0.2-0.2-0.4-0.3-0.6-0.4
	c-0.2-0.1-0.5-0.1-0.7-0.1H28c-0.2,0-0.5,0-0.7,0.1c-0.2,0.1-0.4,0.2-0.6,0.4c-0.2,0.2-0.3,0.4-0.4,0.6s-0.1,0.5-0.1,0.7v31.7
	c0,0.2,0,0.5,0.1,0.7c0.1,0.2,0.2,0.4,0.4,0.6c0.2,0.2,0.4,0.3,0.6,0.4c0.2,0.1,0.5,0.1,0.7,0.1c3.7,0.1,7.5,0.1,11.3,0
	c2.3,0,4.6-0.1,6.8-0.2C46.1,44.4,46,40.6,45.9,36.8z"/>
<path class="st2" d="M34.6,15.3h4.2"/>
<path class="st0" d="M36,46.8c0.9,0,1.6-0.7,1.6-1.5c0-0.9-0.7-1.5-1.6-1.5c-0.9,0-1.6,0.7-1.6,1.5C34.5,46.1,35.2,46.8,36,46.8z"/>
<path class="st3" d="M39.4,41.8c-6,0-10.4,0-10.8,0c-0.1,0-0.3,0-0.4-0.2C28,41.5,28,41.4,28,41.2V18.4c0-0.2,0.1-0.3,0.2-0.4
	c0.1-0.1,0.3-0.2,0.4-0.2h14.9c0.1,0,0.2,0,0.2,0s0.1,0.1,0.2,0.1c0.1,0.1,0.1,0.1,0.1,0.2s0,0.2,0,0.2v19.2c0,0.8,0,1.7,0,2.5
	c0,0.5,0,1.1,0,1.6C42.5,41.8,41,41.8,39.4,41.8z"/>
<path class="st0" d="M29.5,25.2v-2h2"/>
<path class="st0" d="M42.6,25.2v-2h-2"/>
<path class="st0" d="M29.5,34.4v2h2"/>
<path class="st0" d="M42.6,34.4v2h-2"/>
<path class="st0" d="M33.4,24.6h-2.6v2.6h2.6V24.6z"/>
<path class="st4" d="M32.6,25.5h-0.9v0.9h0.9V25.5z"/>
<path class="st0" d="M33.4,32.4h-2.6V35h2.6V32.4z"/>
<path class="st4" d="M32.6,33.2h-0.9v0.9h0.9V33.2z"/>
<path class="st0" d="M41.2,24.6h-2.6v2.6h2.6V24.6z"/>
<path class="st4" d="M40.4,25.5h-0.9v0.9h0.9V25.5z"/>
<path class="st0" d="M34.7,24.6v2.6"/>
<path class="st0" d="M36,24.6h1.3v2.6H36v-1.3"/>
<path class="st0" d="M30.9,28.5h2.6"/>
<path class="st0" d="M30.9,29.8v1.3h1.3v-1.3h1.3v1.3"/>
<path class="st0" d="M34.7,28.5v2.6H38"/>
<path class="st0" d="M36,28.5v1.3"/>
<path class="st0" d="M34.7,32.4H36v1.3h-1.3V35H36"/>
<path class="st0" d="M37.3,29.8v-1.3h1.9v2.6"/>
<path class="st0" d="M40.6,28.5h0.6v2.6h-0.6"/>
<path class="st0" d="M41.2,32.4V35"/>
<path class="st0" d="M37.3,32.4h2.6"/>
<path class="st0" d="M37.3,33.7V35"/>
<path class="st0" d="M38.6,33.7h1.3V35h-1.3"/>
<path class="st1" d="M46.8,51.4c3.5,0,6.4-2.8,6.4-6.4s-2.8-6.4-6.4-6.4c-3.5,0-6.4,2.8-6.4,6.4S43.3,51.4,46.8,51.4z"/>
<path class="st5" d="M45.4,48.5c-0.1,0-0.3,0-0.4-0.1c-0.1-0.1-0.2-0.1-0.3-0.2l-2-2c-0.2-0.2-0.3-0.4-0.3-0.7
	c0-0.3,0.1-0.5,0.3-0.7c0.2-0.2,0.4-0.3,0.7-0.3c0.3,0,0.5,0.1,0.7,0.3l1.3,1.3l4.1-4.1c0.2-0.2,0.4-0.3,0.7-0.3
	c0.3,0,0.5,0.1,0.7,0.3c0.2,0.2,0.3,0.4,0.3,0.7c0,0.3-0.1,0.5-0.3,0.7l-4.8,4.8c-0.1,0.1-0.2,0.2-0.3,0.2
	C45.7,48.4,45.6,48.5,45.4,48.5L45.4,48.5z"/>
<path class="st0" d="M11,7.9L24.6,13"/>
<path class="st0" d="M2.8,20.8h21.5"/>
<path class="st3" d="M22.4,41.4"/>
<rect x="4.3" y="16.4" class="st1" width="20.1" height="4.4"/>
<rect x="3.1" y="17" class="st1" width="1" height="3.5"/>
<path class="st1" d="M30.5,15.1l-17-6.3c-0.7-0.3-1-1-0.8-1.7L13.1,6c0.3-0.7,1-1,1.7-0.8l17,6.3c0.7,0.3,1,1,0.8,1.7l-0.4,1.2
	C31.9,15,31.2,15.4,30.5,15.1z"/>
<rect x="12" y="5" transform="matrix(0.9387 0.3447 -0.3447 0.9387 2.9775 -3.9113)" class="st1" width="1" height="2.8"/>
<path class="st5" d="M33,15.9c0.3,0,0.6-0.3,0.6-0.6s-0.3-0.6-0.6-0.6c-0.3,0-0.6,0.3-0.6,0.6S32.6,15.9,33,15.9z"/>
</svg>
